dist/images/contact.svg

<svg width="18" height="20" fill="none" xmlns="http://www.w3.org/2000/svg"><path d="M16 2h-1V0h-2v2H5V0H3v2H2C.89 2 .01 2.9.01 4L0 18a2 2 0 002 2h14c1.1 0 2-.9 2-2V4c0-1.1-.9-2-2-2zm0 16H2V7h14v11zM4 9h5v5H4V9z" fill="#fff"/></svg>

<svg width="18" height="20" viewBox="0 0 18 20" fill="none" xmlns="http://www.w3.org/2000/svg">
<path d="M16 2H15V0H13V2H5V0H3V2H2C0.89 2 0.00999999 2.9 0.00999999 4L0 18C0 19.1 0.89 20 2 20H16C17.1 20 18 19.1 18 18V4C18 2.9 17.1 2 16 2ZM16 18H2V7H16V18ZM4 9H9V14H4V9Z" fill="white"/>
</svg>
